X: 27704
T: Morning After, The
R: reel
M: 4/4
K: Amajor
|:AB|c2ce cBAf|agae fecA|B2Bc BAFA|(3fga ga fecB|
c2ce cBAe|agae fecA|B2Bc BAFE|FAGE F2:|
|:AF|E2EA cBAG|F2FA dcBA|dfed fedf|egbg agfe|
E2EA cBAG|F2FA dcBA|ge (3ede fedB|GABG A2:|

